icon/pk/sun-hat.svg

<svg viewBox="0 0 48 48" fill="none" xmlns="http://www.w3.org/2000/svg" height="1em" width="1em">
  <path d="M12 10C12 8.89543 12.8954 8 14 8H34C35.1046 8 36 8.89543 36 10V20H12V10Z" fill="#2F88FF" stroke="black" stroke-width="4" stroke-linecap="round" stroke-linejoin="round"/>
  <path d="M44 35C42.8917 36.3333 41.625 40 36.4 40C33.6627 40 29.9439 38.3161 25 37" stroke="black" stroke-width="4" stroke-linecap="round" stroke-linejoin="round"/>
  <path d="M4 35C4 35 10 26 12 20H36C38 26 44 35 44 35C38 31 19 40 12 40C6.5 40 5.16667 36.3333 4 35Z" stroke="black" stroke-width="4" stroke-linecap="round" stroke-linejoin="round"/>
</svg>

<svg width="48" height="48" fill="none" xmlns="http://www.w3.org/2000/svg"><path d="M12 10a2 2 0 0 1 2-2h20a2 2 0 0 1 2 2v10H12V10Z" fill="#2F88FF" stroke="#000" stroke-width="4" stroke-linecap="round" stroke-linejoin="round"/><path d="M44 35c-1.108 1.333-2.375 5-7.6 5-2.737 0-6.456-1.684-11.4-3" stroke="#000" stroke-width="4" stroke-linecap="round" stroke-linejoin="round"/><path d="M4 35s6-9 8-15h24c2 6 8 15 8 15-6-4-25 5-32 5-5.5 0-6.833-3.667-8-5Z" stroke="#000" stroke-width="4" stroke-linecap="round" stroke-linejoin="round"/></svg>
